X: 35405
T: Rough As A Badger's
R: reel
M: 4/4
K: Emajor
|:EE/E/EG FEFG|Bee/e/e cBce|BggB fBfg|ecBc ecBG|
EE/E/EG FEFG|Bee/e/e cBce|BggB fBfg|1 ecBc ecBG:|2 ecBc e3d||
cBB/B/B cefe|e/e/efe gece|cBB/B/B cef2-|fegf egfe|
cBB/B/B cefe|e/e/efe gece|gee/e/e fege|e/e/ege fefg|
cBB/B/B cefe|e/e/efe gece|cBB/B/B cef2-|fegf ebfe|
cBB/B/B cefe|e/e/efe gece|gee/e/e fece|e/e/ece cBGF||

